X: 1
T: The Munster Jig
R: jig
M: 6/8
L: 1/8
Z: Contributed 20050424021128 by John Chambers jc1742@gmail.com
K: G
  D |"G" G2G "D"AGA | "G"Bde gdB | GAB "D"cBA | "G"BGE EDE \
     | "G"G2G "D"AGA | "G"Bde gdB | "D"cBA "G"BdB | "D"AGF"G"G2 :|
|: f | "Em"gfg "C"efg | "A"eag "D"fed | "G"gfg "C"efg |"D" afd def \
     | "G"gfe "D"agf | "Em"gfe "Bm"d2B | "Am"cBA "G"BdB | "D"AGF "G"G2 :|
